Obsidian-SemiLight/actions/16s/kr_syncbrowse_on.svg

<svg viewBox="0 0 16 16" xmlns="http://www.w3.org/2000/svg"><path d="m2 2v12h7v-1h-6v-6h10v2h1v-5h-4.992l-2-2-.008.008v-.008h-4zm1 1h3.592l1 1h-.594v.008l-.008-.008-2 2h-1.992z" fill="#4d4d4d"/><path d="m11.5 9a2.5 2.5 0 0 0 -2.5 2.5 2.5 2.5 0 0 0 .416016 1.376953l.731984-.731953a1.5 1.5 0 0 1 -.148-.645 1.5 1.5 0 0 1 1.5-1.5 1.5 1.5 0 0 1 .644531.148438l.732469-.732438a2.5 2.5 0 0 0 -1.377-.416m2.084 1.123-.732.732a1.5 1.5 0 0 1 .148.645 1.5 1.5 0 0 1 -1.5 1.5 1.5 1.5 0 0 1 -.644531-.148438l-.732469.732438a2.5 2.5 0 0 0 1.377.416 2.5 2.5 0 0 0 2.5-2.5 2.5 2.5 0 0 0 -.416016-1.376953" fill="#da4453"/></svg>

<svg xmlns="http://www.w3.org/2000/svg" viewBox="0 0 16 16">
  <defs id="defs3051">
    <style type="text/css" id="current-color-scheme">
      .ColorScheme-Text {
        color:#4d4d4d;
      }
      .ColorScheme-Highlight {
        color:#3daee9;
      }
      .ColorScheme-NegativeText {
        color:#da4453;
      }
      </style>
  </defs>
  <path 
        style="fill:currentColor;fill-opacity:1;stroke:none"
        d="m2 2v12h7v-1h-6v-6h10v2h1v-5h-4.992l-2-2-.008.008v-.008h-4zm1 1h3.592l1 1h-.594v.008l-.008-.008-2 2h-1.992z"
        class="ColorScheme-Text"
        />
 <path d="M11.5 9A2.5 2.5 0 0 0 9 11.5 2.5 2.5 0 0 0 9.416016 12.876953L10.148 12.145A1.5 1.5 0 0 1 10 11.5 1.5 1.5 0 0 1 11.5 10 1.5 1.5 0 0 1 12.144531 10.148438L12.877 9.416A2.5 2.5 0 0 0 11.5 9M13.584 10.123L12.852 10.855A1.5 1.5 0 0 1 13 11.5 1.5 1.5 0 0 1 11.5 13 1.5 1.5 0 0 1 10.855469 12.851562L10.123 13.584A2.5 2.5 0 0 0 11.5 14 2.5 2.5 0 0 0 14 11.5 2.5 2.5 0 0 0 13.583984 10.123047"  style="fill:currentColor;fill-opacity:1;stroke:none" 
     class="ColorScheme-NegativeText"
    />
</svg>
